X:836
T:Seumas Mor a' Ghlinne
R:Reel
C:James Stewart-Robertson
B:The Athole Collection
M:C|
L:1/8
K:F
A/G/|F>GAc defd|cAGF EGGA|F>GAc defg|afge ~f2 f:|
|:a|fc~c>f d>f^cA|B>AGF EGGe|1 ~fcc>f d>efg|afge ~f2f:|2
fcdB Acfg|afge f~f||

